assets/calendar-check-outline.svg

<?xml version="1.0" encoding="UTF-8" standalone="no"?>
<svg
   viewBox="0 0 25 25"
   version="1.1"
   id="svg28"
   sodipodi:docname="calendar-check-outline.svg"
   width="25"
   height="25"
   inkscape:version="1.2.2 (1:1.2.2+202305151914+b0a8486541)"
   xmlns:inkscape="http://www.inkscape.org/namespaces/inkscape"
   xmlns:sodipodi="http://sodipodi.sourceforge.net/DTD/sodipodi-0.dtd"
   xmlns="http://www.w3.org/2000/svg"
   xmlns:svg="http://www.w3.org/2000/svg">
  <defs
     id="defs32" />
  <sodipodi:namedview
     id="namedview30"
     pagecolor="#ffffff"
     bordercolor="#000000"
     borderopacity="0.25"
     inkscape:showpageshadow="2"
     inkscape:pageopacity="0.0"
     inkscape:pagecheckerboard="0"
     inkscape:deskcolor="#d1d1d1"
     showgrid="false"
     inkscape:zoom="20.541667"
     inkscape:cx="12.413793"
     inkscape:cy="13.411765"
     inkscape:window-width="1366"
     inkscape:window-height="673"
     inkscape:window-x="0"
     inkscape:window-y="0"
     inkscape:window-maximized="1"
     inkscape:current-layer="svg28" />
  <path
     d="M 19,3 H 18 V 1 H 16 V 3 H 8 V 1 H 6 V 3 H 5 C 3.9,3 3,3.9 3,5 v 14 c 0,1.11 0.9,2 2,2 h 14 c 1.11,0 2,-0.89 2,-2 V 5 C 21,3.9 20.11,3 19,3 m 0,16 H 5 V 9 H 19 V 19 M 5,7 V 5 H 19 V 7 H 5 m 5.56,10.46 5.94,-5.93 -1.07,-1.06 -4.87,4.87 -2.11,-2.11 -1.06,1.06 z"
     id="path26" />
</svg>

<svg xmlns="http://www.w3.org/2000/svg" viewBox="0 0 24 24"><path d="M19 3H18V1H16V3H8V1H6V3H5C3.9 3 3 3.9 3 5V19C3 20.11 3.9 21 5 21H19C20.11 21 21 20.11 21 19V5C21 3.9 20.11 3 19 3M19 19H5V9H19V19M5 7V5H19V7H5M10.56 17.46L16.5 11.53L15.43 10.47L10.56 15.34L8.45 13.23L7.39 14.29L10.56 17.46Z" /></svg>
